X:14
T:Սիրահար եմ
T:Sirahar Yem
O:Armenia
M: 6/8
L: 1/8
Q: 1/4=150
K: Am
%%MIDI program 75 
%%MIDI bassprog 33
%%MIDI bassvol 60
%%MIDI chordprog 28
%%MIDI chordvol 45
%%MIDI gchord fc2zc2
%%MIDI drumon
%%MIDI drum d2d2d2
P: Intro
"Am" A2 e e3  | e6     | fed  cBc            | "Dm" d6      |  d2   d dcB    | "Am" c2 c B A2       | cBA   "E7" BA^G   |  "Am" A6              :|
P: Verse
"Am" E2 A A3  | A6     | "Dm" (A^G)B (AGF)   | "E7" E6     :|  "Dm" d d2  d3 | "Am" c2 c B A2       | c(BA) "E7" (BA^G) |1 "Am" (A2 B2 "A7" c2) :|2 "Am" A6 ||
w: Յո-թը տար- | վա     |      սի--րա-հար     |      եմ      |       Թե որ չը֊|      տան, յա-րո ջան, | կը-փախ  - ցը-     | նեմ։                   |    նեմ։
P: Chorus
"Am" A2 e e3  | "C" e6 | "Dm" (fe)d  (cBc)   | (d2  c2 B2)  |: "Dm" d d2  d3 | "Am" c2 c B A2       | c(BA) "E7" (BA^G) |1 "Am" (A2 B2 "A7" c2) :|2 "Am" A6 ||
w: Սի-րա-հար  |     եմ |       Սի - րա - հար |   եմ         |      Թե որ չը֊ |      տան, յա-րո ջան, | կը-փախ - ցը-     | նեմ։                   |    նեմ։
W: 
W:
W: 1) Յոթը տարվա սիրահար եմ։
W:    Թե որ չտան, յարո ջան, կփախցնեմ։
W:    Սիրահար եմ, 
W:    Սիրահար եմ,
W:    Թե որ չտան, յարո ջան, կփախցնեմ։
W: 
W: 2) Մեր գարաժը ձեր տան դիմաց։
W:    Աչքով֊ունքով, յարո ջան, ինձ տուր իմաց։
W:    Ձեր տան դիմաց,
W:    Ձեր տան դիմաց,
W:    Աչքով֊ունքով, յարո ջան, ինձ տուր իմաց։
W:
W: 3) Ուր որ գնաս քեզ հետ կգամ։
W:    Սիրտս ու հոգիս, յարո ջան, ես քես կտամ։
W:    Քեզ հետ կգամ,
W:    Քեզ հետ կգամ,
W:    Սիրտս ու հոգիս, յարո ջան, ես քես կտամ։ 
%
%-------------------------------------------------
%


